icons/core/trash.svg

<svg width="32" height="32" viewBox="0 0 32 32" fill="none" xmlns="http://www.w3.org/2000/svg">
<path fill-rule="evenodd" clip-rule="evenodd" d="M11 2.00003C9.89543 2.00003 9 2.89546 9 4.00003V6.00003L2 6.00003V8.00003H4.62711L7.4502 28.7027C7.55155 29.4459 8.18634 30 8.93645 30H23.0636C23.8137 30 24.4485 29.4459 24.5498 28.7027L27.3729 8.00003H30V6.00003L23 6.00003V4.00003C23 2.89546 22.1046 2.00003 21 2.00003H11ZM21 6.00003V4.00003H11V6.00003H21ZM6.64562 8.00003H25.3544L22.6271 28H9.37289L6.64562 8.00003ZM11.5041 12.0906L12.5041 23.0906L14.4959 22.9095L13.4959 11.9095L11.5041 12.0906ZM19.4959 23.0906L20.4959 12.0906L18.5041 11.9095L17.5041 22.9095L19.4959 23.0906Z" fill="black"/>
</svg>

<svg viewBox="0 0 32 32" xmlns="http://www.w3.org/2000/svg"><path fill-rule="evenodd" d="M11 2a2 2 0 00-2 2v2H2v2h2.627L7.45 28.703A1.5 1.5 0 008.936 30h14.128a1.5 1.5 0 001.486-1.297L27.373 8H30V6h-7V4a2 2 0 00-2-2H11zm10 4V4H11v2h10zM6.646 8h18.708l-2.727 20H9.373L6.646 8zm4.858 4.09l1 11 1.992-.18-1-11-1.992.18zm7.992 11l1-11-1.992-.18-1 11 1.992.18z"/></svg>
